X:1
T: Bonnie Kate
T: 3rd Setting
R:Reel
Q: 232
K:D
M:4/4
L:1/8
|:((3dcB) |AF dA ((3Bcd) AF|DF AF ED EF|AF Ad BG Bd|((3cBA) Bc dc dB|
Ad cd Bd AF|DF AF ED EF|AF Ad BG Bd|((3cBA) Bc de fg|
ag fd ((3fga) fd|fa gf e^d ef|gf ef gb ag|fe dc de fg|
a2 fd ((3fga) fd|fa gf ed ef|g2 gf gb ag|fd ec d2:|
